X:863
T:Stewart's Rant, The
R:Reel
B:The Athole Collection
M:C|
L:1/8
K:A
e|c/d/e f/g/a e2 ce|dBfB bBfB| c/d/e f/g/a e2 ce|dBge a2 Ae| c/d/e f/g/a e2 ce|
dBfB bBfB|cefa efce|defg a2A||e|c>A A/A/A cAcA|B>E E/E/E BEBd|
cA A/A/A cAcA|BE E/E/E e2 Ae|cAeA fAeA|GEBE GABd|cAeA AaeA|
defg a2A||

